build/security/SafeCertificateSolid.svg

<svg xmlns="http://www.w3.org/2000/svg" fill="none" viewBox="0 0 24 24" focusable="false"><path d="M0 0H24V24H0z"/><path fill="#74767B" fill-rule="evenodd" d="M4 5.92268C4 5.32615 4.40599 4.80617 4.9847 4.6615L11.2724 3.08957C11.7501 2.97014 12.2499 2.97014 12.7276 3.08957L19.0153 4.6615C19.594 4.80617 20 5.32615 20 5.92268L20 11.1531C20 14.2562 18.4014 17.1404 15.77 18.7851L12.689 20.7107C12.2674 20.9741 11.7326 20.9741 11.311 20.7107L8.23001 18.7851C5.59858 17.1404 4 14.2562 4 11.1531L4 5.92268ZM11.0488 13.4016C11.3288 13.6816 11.7888 13.6716 12.0588 13.3816L15.1196 10.0917C15.3596 9.82171 15.3396 9.41171 15.0796 9.17171C14.8196 8.93171 14.3996 8.94171 14.1596 9.21171L11.5288 12.0416L10.1075 10.6389C9.8575 10.3889 9.4375 10.3889 9.1875 10.6389C8.9375 10.8889 8.9375 11.3089 9.1875 11.5589L11.0488 13.4016Z"/></svg>

<svg xmlns="http://www.w3.org/2000/svg" fill="none" viewBox="0 0 24 24" focusable="false"><path fill="#74767B" fill-rule="evenodd" d="M4 5.92c0-.6.4-1.12.98-1.26l6.29-1.58c.48-.11.97-.11 1.45 0l6.29 1.58c.58.14.99.66.99 1.26v5.23c0 3.1-1.6 5.99-4.23 7.63l-3.09 1.93a1.3 1.3 0 0 1-1.37 0l-3.09-1.93A8.99 8.99 0 0 1 4 11.15zm7.04 7.48c.28.28.74.27 1.01-.02l3.06-3.29c.24-.27.22-.68-.04-.92a.65.65 0 0 0-.92.04l-2.63 2.83-1.42-1.41a.66.66 0 0 0-.92 0c-.25.25-.25.67 0 .92z"/></svg>
